src/pos-icons/border-color.svg

<svg height="24" viewBox="0 0 24 24" width="24" xmlns="http://www.w3.org/2000/svg"><path d="m20.71 4.04c.39-.39.39-1.04 0-1.41l-2.34-2.34c-.37-.39-1.02-.39-1.41 0l-1.96 1.96 3.75 3.75m-1 1-3.75-3.75-10 10v3.75h3.75z"/></svg>

<?xml version="1.0" encoding="UTF-8"?><!DOCTYPE svg PUBLIC "-//W3C//DTD SVG 1.1//EN" "http://www.w3.org/Graphics/SVG/1.1/DTD/svg11.dtd"><svg xmlns="http://www.w3.org/2000/svg" xmlns:xlink="http://www.w3.org/1999/xlink" version="1.1" id="mdi-border-color" width="24" height="24" viewBox="0 0 24 24"><path d="M20.71,4.04C21.1,3.65 21.1,3 20.71,2.63L18.37,0.29C18,-0.1 17.35,-0.1 16.96,0.29L15,2.25L18.75,6M17.75,7L14,3.25L4,13.25V17H7.75L17.75,7Z" /></svg>
